!! J.S. Bach "Double Presto" from Partita No. 1, solo violin, BWV 1002.
!! From 'Neue Ausgabe Saemtlicher Werke' Serie VI: Kammermusikwerke,
!! Band 1 ('Werke fuer Violine') Baerenreiter Kassel (Basel) 1958; pp.13-15
!! This file has been error-checked using the double-entry method.
!! NOTE: The repeats at the end of bar 32 and at the end of the movement
!!       have been expanded in this encoding.
**kern
*M3/4
16b
=1
8b
16a
16g
16f#
16e
16d
16c#
16B
16d
16c#
16B
=2
16A#
16c#
16d
16e
16f#
16g#
16a#
16b
16cc#
16dd
16ee
16cc#
=3
16dd
16b
16an
16gn
16f#
16e
16d
16c#
16B
16d
16c#
16B
=4
16c#
16e
16f#
16g
16a
16b
16cc#
16dd
16ee
16ff#
16gg
16ee
=5
16ff#
16dd
16cc#
16b
16a
16g
16f#
16e
16d
16f#
16e
16d
=6
16e
16g
16a
16b
16ccn
16dd
16ee
16ff#
16gg
16ee
16ff#
16gg
=7
16a#
16cc#
16dd
16ee
16ff#
16g
16f#
16e
16d#
16ccn
16b
16an
=8
16g#
16b
16cc#
16dd
16ee
16f#
16e
16dn
16c#
16dd
16cc#
16b
=9
16a#
16gg
16ff#
16ee
16dd
16ff#
16gg#
16aa#
16bb
16dd
16cc#
16b
=10
16f#
16cc#
16dd
16ee
16ff#
16gg#
16aa#
16bb
16ccc#
16ddd
16eee
16ccc#
=11
16ddd
16bb
16aan
16ggn
16ff#
16ee
16dd
16cc#
16b
16a
16g#
16f#
=12
16e
16b
16cc#
16dd
16ee
16ff#
16gg#
16aa
16bb
16ccc#
16ddd
16bb
=13
16ccc#
16aa
16gg#
16ff#
16ee
16dd
16cc#
16b
16a
16gn
16f#
16e
=14
16d
16a
16b
16cc#
16dd
16ee
16ff#
16gg
16aa
16bb
16cccn
16aa
=15
16bb
16gg
16ff#
16ee
16dd
16ccn
16b
16a
16g
16f#
16e
16d
=16
16c#
16e
16f#
16g
16a
16b
16cc#
16dd
16ee
16ff#
16gg
16ee
=17
16ff#
16aa
16bb
16ccc#
16ddd
16ff#
16ee
16dd
16a
16ee
16ddd
16ccc#
=18
16ddd
16aa
16ff#
16ddd
16aa
16ff#
16dd
16aa
16ff#
16dd
16cc#
16b
=19
16a#
16gg
16ff#
16ee
16ccc#
16bb
16aa#
16gg#
16ff#
16ee
16dd
16cc#
=20
16dd
16b
16dd
16ff#
16bb
16ccc#
16ddd
16ccc#
16bb
16aan
16gg#
16ff#
=21
16ee#
16ccc#
16gg#
16ee#
16cc#
16gg#
16ee#
16cc#
16b
16dd
16cc#
16b
=22
16a
16cc#
16ff#
16gg#
16aa
16bb
16ccc#
16bb
16aa
16gg#
16ff#
16een
=23
16dd#
16bb
16ff#
16dd#
16b
16ff#
16dd#
16b
16a
16cc#
16b
16a
=24
16g#
16ff#
16ddn
16b
16g#
16dd
16b
16g#
16f#
16a
16g#
16f#
=25
16e#
16g#
16a
16b
16cc#
16dd#
16ee#
16ff#
16gg#
16aa
16bb
16gg#
=26
16aa
16ff#
16een
16ddn
16cc#
16b
16a
16g#
16f#
16en
16d
16c#
=27
16B
16f#
16gn
16a
16b
16cc#
16dd
16ee
16ff#
16gg
16aa
16ff#
=28
16gg
16bb
16gg
16dd
16b
16gg
16dd
16b
16g
16dd
16b
16g
=29
16e#
16b
16g#
16e#
16c#
16d#
16e#
16f#
16g#
16a
16b
16g#
=30
16a
16f#
16a
16cc#
16ff#
16a
16g#
16f#
16c#
16g#
16ff#
16ee#
=31
16ff#
16f#
16a#
16cc#
16een
16f#
16a#
16cc#
16dd
16f#
16b
16dd
=32
16cc#
16b
16a#
16g#
16f#
16a#
16cc#
16ee#
8.ff#
16b
=33
8b
16a
16g
16f#
16e
16d
16c#
16B
16d
16c#
16B
=34
16A#
16c#
16d
16e
16f#
16g#
16a#
16b
16cc#
16dd
16ee
16cc#
=35
16dd
16b
16an
16gn
16f#
16e
16d
16c#
16B
16d
16c#
16B
=36
16c#
16e
16f#
16g
16a
16b
16cc#
16dd
16ee
16ff#
16gg
16ee
=37
16ff#
16dd
16cc#
16b
16a
16g
16f#
16e
16d
16f#
16e
16d
=38
16e
16g
16a
16b
16ccn
16dd
16ee
16ff#
16gg
16ee
16ff#
16gg
=39
16a#
16cc#
16dd
16ee
16ff#
16g
16f#
16e
16d#
16ccn
16b
16an
=40
16g#
16b
16cc#
16dd
16ee
16f#
16e
16dn
16c#
16dd
16cc#
16b
=41
16a#
16gg
16ff#
16ee
16dd
16ff#
16gg#
16aa#
16bb
16dd
16cc#
16b
=42
16f#
16cc#
16dd
16ee
16ff#
16gg#
16aa#
16bb
16ccc#
16ddd
16eee
16ccc#
=43
16ddd
16bb
16aan
16ggn
16ff#
16ee
16dd
16cc#
16b
16a
16g#
16f#
=44
16e
16b
16cc#
16dd
16ee
16ff#
16gg#
16aa
16bb
16ccc#
16ddd
16bb
=45
16ccc#
16aa
16gg#
16ff#
16ee
16dd
16cc#
16b
16a
16gn
16f#
16e
=46
16d
16a
16b
16cc#
16dd
16ee
16ff#
16gg
16aa
16bb
16cccn
16aa
=47
16bb
16gg
16ff#
16ee
16dd
16ccn
16b
16a
16g
16f#
16e
16d
=48
16c#
16e
16f#
16g
16a
16b
16cc#
16dd
16ee
16ff#
16gg
16ee
=49
16ff#
16aa
16bb
16ccc#
16ddd
16ff#
16ee
16dd
16a
16ee
16ddd
16ccc#
=50
16ddd
16aa
16ff#
16ddd
16aa
16ff#
16dd
16aa
16ff#
16dd
16cc#
16b
=51
16a#
16gg
16ff#
16ee
16ccc#
16bb
16aa#
16gg#
16ff#
16ee
16dd
16cc#
=52
16dd
16b
16dd
16ff#
16bb
16ccc#
16ddd
16ccc#
16bb
16aan
16gg#
16ff#
=53
16ee#
16ccc#
16gg#
16ee#
16cc#
16gg#
16ee#
16cc#
16b
16dd
16cc#
16b
=54
16a
16cc#
16ff#
16gg#
16aa
16bb
16ccc#
16bb
16aa
16gg#
16ff#
16een
=55
16dd#
16bb
16ff#
16dd#
16b
16ff#
16dd#
16b
16a
16cc#
16b
16a
=56
16g#
16ff#
16ddn
16b
16g#
16dd
16b
16g#
16f#
16a
16g#
16f#
=57
16e#
16g#
16a
16b
16cc#
16dd#
16ee#
16ff#
16gg#
16aa
16bb
16gg#
=58
16aa
16ff#
16een
16ddn
16cc#
16b
16a
16g#
16f#
16en
16d
16c#
=59
16B
16f#
16gn
16a
16b
16cc#
16dd
16ee
16ff#
16gg
16aa
16ff#
=60
16gg
16bb
16gg
16dd
16b
16gg
16dd
16b
16g
16dd
16b
16g
=61
16e#
16b
16g#
16e#
16c#
16d#
16e#
16f#
16g#
16a
16b
16g#
=62
16a
16f#
16a
16cc#
16ff#
16a
16g#
16f#
16c#
16g#
16ff#
16ee#
=63
16ff#
16f#
16a#
16cc#
16een
16f#
16a#
16cc#
16dd
16f#
16b
16dd
=64
16cc#
16b
16a#
16g#
16f#
16a#
16cc#
16ee#
8.ff#
16cc#
=65
16cc#
16f#
16g#
16a#
16b
16cc#
16dd
16ee
16ff#
16gg#
16aa#
16ff#
=66
16bb
16ff#
16ee
16dd
16cc#
16b
16a#
16g#
16f#
16e
16d
16c#
=67
16d
16B
16d
16f#
16b
16d
16f#
16b
16dd
16b
16dd
16ff#
=68
16ee
16dd
16cc#
16b
16a
16g
16f#
16e
16d#
16ccn
16b
16a
=69
16g
16e
16g
16b
16ee
16g
16b
16ee
16gg
16ee
16gg
16bb
=70
16aa
16gg
16ff#
16ee
16dd
16ccn
16b
16a
16g#
16ffn
16ee
16dd
=71
16ccn
16a
16cc
16ee
16aa
16bb
16cccn
16bb
16aa
16gg
16ff#
16ee
=72
16dd#
16b
16dd#
16ff#
16aa
16gg
16ff#
16ee
16dd#
16cc#
16b
16a
=73
16g
16b
16ee
16g
16f#
16a
16ddn
16f#
16e
16g
16ccn
16e
=74
16d#
16f#
16a
16ccn
16b
16cc#
16dd#
16ee
16ff#
16gg
16aa
16ff#
=75
16gg
16b
16e
16b
16ff#
16b
16dn
16b
16ee
16a
16cn
16a
=76
16dd
16g#
16B
16cn
16d
16e
16f#
16g#
16a
16b
16ccn
16dd
=77
16ee
16ccn
16a
16b
16cc
16dd
16ee
16ff#
16gg
16aa
16bb
16cccn
=78
16dd#
16bb
16ff#
16dd#
16b
16ff#
16dd#
16b
16a
16ccn
16b
16a
=79
16g
16b
16cc#
16dd#
16ee
16g
16f#
16e
16B
16f#
16ee
16dd#
=80
16ee
16e
16f#
16g
16a
16b
16cc#
16dd#
16ee
16ff#
16gg
16aa
=81
16bb
16ccc#
16ddd
16ccc#
16bb
16aa
16gg#
16ff#
16ee
16ddn
16cc#
16b
=82
16cc#
16dd
16ee
16dd
16cc#
16b
16a
16g#
16f#
16e
16d
16c#
=83
16d
16e
16f#
16e
16d
16c#
16B
16a
16g#
16f#
16e
16dd
=84
16cc#
16a
16cc#
16ee
16gg
16ff#
16ee
16dd
16cc#
16b
16a
16g
=85
16f#
16a
16dd
16f#
16e
16g
16cc#
16e
16d
16f#
16b
16d
=86
16c#
16e
16g
16b
16a
16b
16cc#
16dd
16ee
16ff#
16gg
16ee
=87
16ff#
16a
16d
16a
16ee
16a
16c#
16a
16dd
16g
16B
16g
=88
16cc#
16g
16A
16B
16c#
16d
16e
16f#
16g
16b
16a
16g
=89
16f#
16d
16f#
16a
16ccn
16a
16cc
16ff#
16aa
16dd
16ff#
16aa
=90
16bb
16cccn
16bb
16aa
16gg
16ff#
16ee
16dd
16cc#
16b
16a
16g
=91
16f#
16a
16b
16cc#
16dd
16f#
16e
16d
16A
16e
16dd
16cc#
=92
16dd
16a
16f#
16dd
16a
16f#
16d
16a
16f#
16d
16c#
16B
=93
16A#
16g
16f#
16e
16cc#
16b
16a#
16g#
16f#
16e
16d
16c#
=94
16d
16B
16d
16f#
16b
16cc#
16dd
16cc#
16b
16an
16g#
16f#
=95
16e#
16c#
16e#
16g#
16cc#
16g#
16cc#
16ee#
16gg#
16dd
16cc#
16b
=96
16a#
16ff#
16cc#
16a#
16f#
16cc#
16a#
16f#
16en
16gn
16f#
16e
=97
16d#
16ff#
16gg#
16aa
16bb
16cc#
16b
16a
16g#
16f#
16e
16dn
=98
16c#
16ee
16ff#
16ggn
16aa
16b
16a
16g
16f#
16e
16d
16cn
=99
16B
16dd
16ee
16ff#
16gg
16a
16g
16f#
16e
16d
16c#
16B
=100
16A#
16cc#
16dd
16ee
16ff#
16g
16f#
16e
16d#
16c#
16B
16An
=101
16G#
16B
16c#
16dn
16e
16f#
16g#
16a#
16b
16cc#
16dd
16b
=102
16cc#
16ff#
16ee
16dd
16cc#
16b
16a#
16g#
16f#
16e
16d
16c#
=103
16d
16B
16d
16f#
16b
16dd
16ff#
16b
16f#
16b
16cc#
16a#
=104
16b
16g
16b
16dd
16ff#
16ee
16dd
16cc#
16b
16an
16g#
16f#
=105
{16e
16f#
16e}
16dd
{16bb
16aa
16bb}
16dd
{16e
16f#
16e}
16dd
=106
16cc#
16a
16cc#
16ee
16gg
16ff#
16ee
16dd
16cc#
16b
16a#
16g#
=107
{16f#
16gn
16f#}
16ee
{16ccc#
16bb
16ccc#}
16ee
{16f#
16g
16f#}
16ee
=108
16dd#
16b
16dd#
16ff#
16aa
16gg
16ff#
16ee
16dd#
16cccn
16bb
16aa
=109
{16gg
16ff#}
{16ee#
16ff#}
{16cc#
16ddn}
{16a#
16b}
{16e#
16f#}
{16a#
16b}
=110
16een
16aa#
16ccc#
16ee
16dd
16bb
16cc#
16b
16f#
16cc#
16bb
16aa#
=111
16bb
16ddd
16bb
16ff#
16bb
16ff#
16dd
16ff#
16dd
16b
16ff#
16dd
=112
16b
16dd
16b
16f#
16b
16f#
16d
16f#
8.B
16cc#
=113
16cc#
16f#
16g#
16a#
16b
16cc#
16dd
16ee
16ff#
16gg#
16aa#
16ff#
=114
16bb
16ff#
16ee
16dd
16cc#
16b
16a#
16g#
16f#
16e
16d
16c#
=115
16d
16B
16d
16f#
16b
16d
16f#
16b
16dd
16b
16dd
16ff#
=116
16ee
16dd
16cc#
16b
16a
16g
16f#
16e
16d#
16ccn
16b
16a
=117
16g
16e
16g
16b
16ee
16g
16b
16ee
16gg
16ee
16gg
16bb
=118
16aa
16gg
16ff#
16ee
16dd
16ccn
16b
16a
16g#
16ffn
16ee
16dd
=119
16ccn
16a
16cc
16ee
16aa
16bb
16cccn
16bb
16aa
16gg
16ff#
16ee
=120
16dd#
16b
16dd#
16ff#
16aa
16gg
16ff#
16ee
16dd#
16cc#
16b
16a
=121
16g
16b
16ee
16g
16f#
16a
16ddn
16f#
16e
16g
16ccn
16e
=122
16d#
16f#
16a
16ccn
16b
16cc#
16dd#
16ee
16ff#
16gg
16aa
16ff#
=123
16gg
16b
16e
16b
16ff#
16b
16dn
16b
16ee
16a
16cn
16a
=124
16dd
16g#
16B
16cn
16d
16e
16f#
16g#
16a
16b
16ccn
16dd
=125
16ee
16ccn
16a
16b
16cc
16dd
16ee
16ff#
16gg
16aa
16bb
16cccn
=126
16dd#
16bb
16ff#
16dd#
16b
16ff#
16dd#
16b
16a
16ccn
16b
16a
=127
16g
16b
16cc#
16dd#
16ee
16g
16f#
16e
16B
16f#
16ee
16dd#
=128
16ee
16e
16f#
16g
16a
16b
16cc#
16dd#
16ee
16ff#
16gg
16aa
=129
16bb
16ccc#
16ddd
16ccc#
16bb
16aa
16gg#
16ff#
16ee
16ddn
16cc#
16b
=130
16cc#
16dd
16ee
16dd
16cc#
16b
16a
16g#
16f#
16e
16d
16c#
=131
16d
16e
16f#
16e
16d
16c#
16B
16a
16g#
16f#
16e
16dd
=132
16cc#
16a
16cc#
16ee
16gg
16ff#
16ee
16dd
16cc#
16b
16a
16g
=133
16f#
16a
16dd
16f#
16e
16g
16cc#
16e
16d
16f#
16b
16d
=134
16c#
16e
16g
16b
16a
16b
16cc#
16dd
16ee
16ff#
16gg
16ee
=135
16ff#
16a
16d
16a
16ee
16a
16c#
16a
16dd
16g
16B
16g
=136
16cc#
16g
16A
16B
16c#
16d
16e
16f#
16g
16b
16a
16g
=137
16f#
16d
16f#
16a
16ccn
16a
16cc
16ff#
16aa
16dd
16ff#
16aa
=138
16bb
16cccn
16bb
16aa
16gg
16ff#
16ee
16dd
16cc#
16b
16a
16g
=139
16f#
16a
16b
16cc#
16dd
16f#
16e
16d
16A
16e
16dd
16cc#
=140
16dd
16a
16f#
16dd
16a
16f#
16d
16a
16f#
16d
16c#
16B
=141
16A#
16g
16f#
16e
16cc#
16b
16a#
16g#
16f#
16e
16d
16c#
=142
16d
16B
16d
16f#
16b
16cc#
16dd
16cc#
16b
16an
16g#
16f#
=143
16e#
16c#
16e#
16g#
16cc#
16g#
16cc#
16ee#
16gg#
16dd
16cc#
16b
=144
16a#
16ff#
16cc#
16a#
16f#
16cc#
16a#
16f#
16en
16gn
16f#
16e
=145
16d#
16ff#
16gg#
16aa
16bb
16cc#
16b
16a
16g#
16f#
16e
16dn
=146
16c#
16ee
16ff#
16ggn
16aa
16b
16a
16g
16f#
16e
16d
16cn
=147
16B
16dd
16ee
16ff#
16gg
16a
16g
16f#
16e
16d
16c#
16B
=148
16A#
16cc#
16dd
16ee
16ff#
16g
16f#
16e
16d#
16c#
16B
16An
=149
16G#
16B
16c#
16dn
16e
16f#
16g#
16a#
16b
16cc#
16dd
16b
=150
16cc#
16ff#
16ee
16dd
16cc#
16b
16a#
16g#
16f#
16e
16d
16c#
=151
16d
16B
16d
16f#
16b
16dd
16ff#
16b
16f#
16b
16cc#
16a#
=152
16b
16g
16b
16dd
16ff#
16ee
16dd
16cc#
16b
16an
16g#
16f#
=153
{16e
16f#
16e}
16dd
{16bb
16aa
16bb}
16dd
{16e
16f#
16e}
16dd
=154
16cc#
16a
16cc#
16ee
16gg
16ff#
16ee
16dd
16cc#
16b
16a#
16g#
=155
{16f#
16gn
16f#}
16ee
{16ccc#
16bb
16ccc#}
16ee
{16f#
16g
16f#}
16ee
=156
16dd#
16b
16dd#
16ff#
16aa
16gg
16ff#
16ee
16dd#
16cccn
16bb
16aa
=157
{16gg
16ff#}
{16ee#
16ff#}
{16cc#
16ddn}
{16a#
16b}
{16e#
16f#}
{16a#
16b}
=158
16een
16aa#
16ccc#
16ee
16dd
16bb
16cc#
16b
16f#
16cc#
16bb
16aa#
=159
16bb
16ddd
16bb
16ff#
16bb
16ff#
16dd
16ff#
16dd
16b
16ff#
16dd
=160
16b
16dd
16b
16f#
16b
16f#
16d
16f#
8.B
==
*-
